src/assets/images/icons/menu-fold-line.svg

<svg width="24" height="24" viewBox="0 0 24 24" fill="none" xmlns="http://www.w3.org/2000/svg">
<g clip-path="url(#clip0_58_16292)">
<path d="M21 18.0001V20.0001H3V18.0001H21ZM6.596 3.90405L8.01 5.31805L4.828 8.50005L8.01 11.6821L6.596 13.0961L2 8.50005L6.596 3.90405ZM21 11.0001V13.0001H12V11.0001H21ZM21 4.00005V6.00005H12V4.00005H21Z" fill="#181D27"/>
</g>
<defs>
<clipPath id="clip0_58_16292">
<rect width="24" height="24" fill="white"/>
</clipPath>
</defs>
</svg>

<svg xmlns="http://www.w3.org/2000/svg" width="24" height="24" fill="none" viewBox="0 0 24 24"><g clip-path="url(#a)"><path fill="#181d27" d="M21 18v2H3v-2zM6.596 3.904 8.01 5.318 4.828 8.5l3.182 3.182-1.414 1.414L2 8.5zM21 11v2h-9v-2zm0-7v2h-9V4z"/></g><defs><clipPath id="a"><path fill="#fff" d="M0 0h24v24H0z"/></clipPath></defs></svg>
